X: 2194
T: Şu Karşıki Dağda Bir Yeşil Çadır
C: Dede Efendi
O: Turkey
F: http://compmusic.upf.edu/node/140
N: hicaz--sarki--aksak--su_karsiki_dagda--dede_efendi
N: makam= hicaz
N: form= sarki
N: usul= aksak = 9/8
M: 9/8
L: 1/16
K: C _7/8B ^f ^c 
Q: 1/4=204
%%MIDI tuningsystem comma53
e4 c2d2 e4 e4 g2 | =f3ed2 f2e2 d2c4z2  | \
w:  *  Şu  kar şı ki   |  dağ *  *  *  da   | 
d4 e2f2 g2e2 =f2e2 d2 | 
w:  bir  ye *  şil  *  *  *  ça  | 
e2 =fge2 d2c2 B2A3dcd  | e4 c2d2 e4 e4 g2 | \
w:  dır   SAZ  |  *  Şu  kar şı ki   | 
=f3ed2 f2e2 d2c4z2  | 
w:  dağ *  *  *  da   | 
d4 e2f2 g2e2 =f2e2 d2 | e6 d2c2 d2e=f edcd  | \
w:  bir  ye *  şil  *  *  *  ça  |  dır   SAZ  | 
e4 d2e2 =f2e2 f2e2 d2 | 
w:  *  Ça dı rın   | 
c2 d4 =f2e2 d2c4BA  | A4 A4 B2A2 e2d2 c2 | \
w:  i çin de  ah   |  *  bir  ci  | 
c2 B2B2 A2A4e=f edcd  | 
w:  van  *  ya *  tır   SAZ  | 
e4 d2e2 =f2e2 f2e2 d2 | c2 d4 =f2e2 d2c4BA  | \
w:  *  Ça dı rın   |  i çin de  ah   | 
A4 A4 B2A2 e2d2 c2 | 
w:  *  bir  ci  | 
c2 B2B2 A2A4e=f edcd  | e4 c2d2 e4 e6 | \
w:  van  *  ya *  tır   SAZ  |  *  O  ci van   | 
^1/4f2 e2f2 ^g2a2 g2f4e2  | 
w:  bil *  mi *  yor   | 
^d4 e4 ^1/4f2e2 =b2a2 ^g2 | ^g2 ^1/4f2f2 e2e4e=f edcd  | \
w:  *  hiç  gö  |  nül  *  ha *  tır   SAZ  | 
e4 c2d2 e4 e6 | 
w:  *  O  ci van   | 
^1/4f2 e2f2 ^g2a2 g2f4e2  | ^d4 e4 ^1/4f2e2 =b2a2 ^g2 | \
w:  bil *  mi *  yor   |  *  hiç  gö  | 
^g2 ^1/4f2f2 e2e4e=f edcd  | 
w:  nül  *  ha *  tır   SAZ  | 
e4 d2e2 =f2e2 f2e2 d2 | c2 d4 =f2e2 d2c4BA  | \
w:  *  Ley *  lâ  |  nın  aş kı na   | 
A4 A4 B2A2 e2d2 c2 | 
w:  *  dağ lar  *  *  *  me  | 
c2 B2B2 A2A4e=f edcd  | e4 d2e2 =f2e2 f2e2 d2 | \
w:  kâ *  *  *  nım   SAZ  |  *  Sev *  dâ   | 
c2 d4 =f2e2 d2c4BA  | 
w:  ne  müş kül  ah   | 
A4 A4 B2A2 e2d2 c2 | c2 B2B2 A2A8z2  | |


